img/help-center-billing.svg

<?xml version="1.0" encoding="UTF-8"?>
<svg width="100px" height="100px" viewBox="0 0 100 100" version="1.1" xmlns="http://www.w3.org/2000/svg" xmlns:xlink="http://www.w3.org/1999/xlink">
    <!-- Generator: Sketch 48.2 (47327) - http://www.bohemiancoding.com/sketch -->
    <title>help-center-billing</title>
    <desc>Created with Sketch.</desc>
    <defs>
        <path d="M50,100 C22.3857625,100 0,77.6142375 0,50 C0,22.3857625 22.3857625,0 50,0 C77.6142375,0 100,22.3857625 100,50 C100,77.6142375 77.6142375,100 50,100 Z" id="path-1"></path>
    </defs>
    <g id="Page-1" stroke="none" stroke-width="1" fill="none" fill-rule="evenodd">
        <g id="help-center-billing">
            <g id="Combined-Shape" opacity="0.197067482">
                <use fill="#000000" fill-rule="evenodd" xlink:href="#path-1"></use>
                <path stroke="#000000" stroke-width="4" d="M50,98 C76.509668,98 98,76.509668 98,50 C98,23.490332 76.509668,2 50,2 C23.490332,2 2,23.490332 2,50 C2,76.509668 23.490332,98 50,98 Z"></path>
            </g>
            <path d="M50,84 C31.2223185,84 16,68.7776815 16,50 C16,31.2223185 31.2223185,16 50,16 C68.7776815,16 84,31.2223185 84,50 C84,68.7776815 68.7776815,84 50,84 Z" id="Combined-Shape" fill="#F5F9FF"></path>
            <path d="M59.2857143,40.9104639 C59.0036152,40.5940293 58.588309,40.2538673 58.039783,39.8899676 C57.4912571,39.5260679 56.8565437,39.1779952 56.1356239,38.8457389 C55.4147041,38.5134827 54.7657779,38.1781218 53.9038086,37.9407959 C53.0418392,37.70347 52.6495361,37.5404531 52,37.5404531 L52,47.3656958 L51.9981917,47.5555556 C53.690786,47.9669204 55.2187997,48.4257436 56.5822785,48.9320388 C57.9457573,49.4383341 59.0976445,50.0553721 60.0379747,50.7831715 C60.9783049,51.5109709 61.7070499,52.404885 62.2242315,53.4649407 C62.7414131,54.5249963 63,55.8144476 63,57.3333333 C63,59.0104363 62.7022332,60.442281 62.1066908,61.6289105 C61.5111483,62.8155399 60.6883717,63.804383 59.6383363,64.5954693 C58.588301,65.3865556 57.36589,65.9798614 55.9710669,66.3754045 C54.5762438,66.7709477 53.5985613,66.9845378 52,67.0161812 L52,72 L48,72 L48,66.9212513 C45.7432075,66.7630341 44.6323188,66.3121217 42.5949367,65.5685005 C40.5575546,64.8248794 38.6925944,63.7885719 37,62.4595469 L39.39783,57.9029126 C39.7426178,58.282634 40.2441197,58.6939928 40.9023508,59.1370011 C41.560582,59.5800094 42.3285068,60.0071896 43.2061483,60.4185545 C44.0837898,60.8299194 45.0476138,61.1938136 46.0976492,61.5102481 C47.1476846,61.8266826 46.8773216,61.8778207 48.0057179,62.0043945 L48,52.3495146 L48.0057179,51.9678195 C46.0239078,51.3821452 44.6356245,50.9318868 43.840868,50.6170442 C42.6027666,50.1265707 41.5762548,49.5332649 40.761302,48.837109 C39.9463492,48.140953 39.3273077,47.3261463 38.9041591,46.3926645 C38.4810105,45.4591827 38.2694394,44.3279462 38.2694394,42.9989213 C38.2694394,41.4483921 38.5358623,40.0719226 39.0687161,38.8694714 C39.6015699,37.6670202 40.3538227,36.6307127 41.3254973,35.7605178 C42.2971718,34.8903229 43.4333871,34.2099989 44.7341772,33.7195254 C46.0349673,33.2290518 46.4820557,33.0611572 48,32.793959 L48,28 L52,28 L52,32.793959 C54.0373821,32.9205328 55.3990269,33.3318915 57.1229656,34.0280475 C58.8469043,34.7242034 60.367082,35.5627423 61.6835443,36.5436893 L59.2857143,40.9104639 Z M57.358047,57.9029126 C57.358047,56.5106007 56.8095293,55.4584717 55.7124774,54.7464941 C54.6154255,54.0345164 53.9746934,53.3937461 52,52.824164 L52,62.2222222 C54.0060378,62.1905788 54.6546058,61.810863 55.7359855,61.0830636 C56.8173653,60.3552643 57.358047,59.2952245 57.358047,57.9029126 Z M43.7703436,42.1445523 C43.7703436,43.4735773 44.378271,44.4894578 44.9708252,45.170166 C45.5633794,45.8508742 46.1193396,46.3847512 48,46.8910464 L48,37.5404531 C46.0879953,37.6353834 45.6723633,38.1386719 44.9708252,38.8457389 C44.2692871,39.552806 43.7703436,40.7838839 43.7703436,42.1445523 Z" id="$" fill="#D3E0EB"></path>
        </g>
    </g>
</svg>

<svg width="100" height="100" viewBox="0 0 100 100" xmlns="http://www.w3.org/2000/svg" xmlns:xlink="http://www.w3.org/1999/xlink"><defs><path d="M50 100C22.386 100 0 77.614 0 50S22.386 0 50 0s50 22.386 50 50-22.386 50-50 50z" id="a"/></defs><g fill="none" fill-rule="evenodd"><g opacity=".197"><use fill="#000" xlink:href="#a"/><path stroke="#000" stroke-width="4" d="M50 98c26.51 0 48-21.49 48-48S76.51 2 50 2 2 23.49 2 50s21.49 48 48 48z"/></g><path d="M50 84c-18.778 0-34-15.222-34-34s15.222-34 34-34 34 15.222 34 34-15.222 34-34 34z" fill="#F5F9FF"/><path d="M59.286 40.91c-.282-.316-.698-.656-1.246-1.02a14.199 14.199 0 0 0-1.904-1.044c-.721-.333-1.37-.668-2.232-.905-.862-.238-1.254-.4-1.904-.4v9.825l-.002.19c1.693.41 3.22.87 4.584 1.376 1.364.506 2.516 1.123 3.456 1.851a7.52 7.52 0 0 1 2.186 2.682c.517 1.06.776 2.35.776 3.868 0 1.677-.298 3.11-.893 4.296a8.354 8.354 0 0 1-2.469 2.966c-1.05.792-2.272 1.385-3.667 1.78-1.395.396-2.372.61-3.971.641V72h-4v-5.079c-2.257-.158-3.368-.609-5.405-1.352A20.234 20.234 0 0 1 37 62.459l2.398-4.556c.345.38.846.791 1.504 1.234.659.443 1.427.87 2.304 1.282.878.41 1.842.775 2.892 1.091 1.05.317.78.368 1.908.494L48 52.35l.006-.382c-1.982-.586-3.37-1.036-4.165-1.351-1.238-.49-2.265-1.084-3.08-1.78a6.98 6.98 0 0 1-1.857-2.444c-.423-.934-.635-2.065-.635-3.394 0-1.55.267-2.927.8-4.13a9.043 9.043 0 0 1 2.256-3.108 10.714 10.714 0 0 1 3.41-2.041c1.3-.49 1.747-.659 3.265-.926V28h4v4.794c2.037.127 3.399.538 5.123 1.234 1.724.696 3.244 1.535 4.56 2.516l-2.397 4.366zm-1.928 16.993c0-1.392-.548-2.445-1.646-3.157-1.097-.711-1.737-1.352-3.712-1.922v9.398c2.006-.031 2.655-.411 3.736-1.139 1.081-.728 1.622-1.788 1.622-3.18zM43.77 42.145c0 1.329.608 2.344 1.2 3.025.593.68 1.15 1.215 3.03 1.721v-9.35c-1.912.094-2.328.598-3.03 1.305-.7.707-1.2 1.938-1.2 3.299z" fill="#D3E0EB"/></g></svg>
